!!!AGN: Motet
!!!SCT: Nugent (2013)
!!!voices: 6
!!!COM: Jachet of Mantua
!!!OTL: Ave regina celorum
**kern	**kern	**kern	**kern	**kern	**kern
*part6	*part5	*part4	*part3	*part2	*part1
*staff6	*staff5	*staff4	*staff3	*staff2	*staff1
*I"Bassus II	*I"Bassus I	*I"Tenor II	*I"Tenor I	*I"Altus	*I"Superius
*I'B. II	*I'B. I	*I'T. II	*I'T. I	*I'A	*I'S
*clefF4	*clefF4	*clefGv2	*clefGv2	*clefGv2	*clefG2
*k[]	*k[]	*k[]	*k[]	*k[]	*k[]
*C:	*C:	*C:	*C:	*C:	*C:
*M2/1	*M2/1	*M2/1	*M2/1	*M2/1	*M2/1
*met(C|)	*met(C|)	*met(C|)	*met(C|)	*met(C|)	*met(C|)
!!Section: Prima pars: Ave regina celorum
!!!OMD: Prima pars: Ave regina celorum
!	!LO:TX:a:t=Canon&colon; bassus I/tenor II at the fifth	!	!	!	!
1r	0r	0r	0r	0A	0r
[1D	.	.	.	.	.
=1	=1	=1	=1	=1	=1
1D]	0r	0r	0r	0B	0r
[1E	.	.	.	.	.
=2	=2	=2	=2	=2	=2
1E]	0r	0r	1r	1.c	0r
[1F	.	.	[1A	.	.
.	.	.	.	2B	.
=3	=3	=3	=3	=3	=3
2F]	0r	0r	0A]	2A	1r
2E	.	.	.	2G	.
[1D	.	.	.	1F	[1d
=4	=4	=4	=4	=4	=4
1D]	0r	0r	1B	1F	1d]
[1C	.	.	[1c	[1G	[1e
=5	=5	=5	=5	=5	=5
1C]	0r	0r	0c]	1G]	1e]
[1FF	.	.	.	[1A	[1f
=6	=6	=6	=6	=6	=6
1FF]	0r	0r	1A	1A]	1f]
1GG	.	.	1G	1B	1d
=7	=7	=7	=7	=7	=7
0AA	0r	0r	1.E	1A	0c
.	.	.	.	1A	.
.	.	.	[2F	.	.
=8	=8	=8	=8	=8	=8
0BB-X	0D	0r	2F]	0r	1f
.	.	.	4E	.	.
.	.	.	4D	.	.
.	.	.	[1d	.	1g
=9	=9	=9	=9	=9	=9
1AA	0E	0r	2d]	2r	[0a
.	.	.	4c	2e	.
.	.	.	4B	.	.
1AA	.	.	2c	2e	.
.	.	.	2A	2c	.
=10	=10	=10	=10	=10	=10
0D	0F	0A	2r	2.d	1a]
.	.	.	2A	.	.
.	.	.	.	8cL	.
.	.	.	.	8BJ	.
.	.	.	2A	2A	[1d
.	.	.	2F	[2d	.
=11	=11	=11	=11	=11	=11
0GG	0D	0B	2.G	2d]	0d]
.	.	.	.	2.G	.
.	.	.	8FL	.	.
.	.	.	8EJ	.	.
.	.	.	2D	.	.
.	.	.	.	4A	.
.	.	.	[2G	2B	.
=12	=12	=12	=12	=12	=12
2r	1C	0c	4G]	2.E	0e
.	.	.	4F	.	.
2C	.	.	4E	.	.
.	.	.	4D	4F	.
2C	1r	.	1E	2G	.
2AA	.	.	.	[2A	.
=13	=13	=13	=13	=13	=13
0D	0F	0A	1r	4A]	0f
.	.	.	.	4D	.
.	.	.	.	1.d	.
.	.	.	[1D	.	.
=14	=14	=14	=14	=14	=14
1GG	0G	1G	1D]	1B	1d
1C	.	1r	1E	2G	1c
.	.	.	.	[2c	.
=15	=15	=15	=15	=15	=15
0FF	1A	0c	0F	4c]	2.f
.	.	.	.	4B	.
.	.	.	.	4A	.
.	.	.	.	4G	4e
.	[1F	.	.	1A	4f
.	.	.	.	.	4g
.	.	.	.	.	[2a
=16	=16	=16	=16	=16	=16
1r	1F]	0d	0D	2r	4a]
.	.	.	.	.	4g
.	.	.	.	2A	4f
.	.	.	.	.	4e
1GG	[1G	.	.	1B	2d
.	.	.	.	.	2g
=17	=17	=17	=17	=17	=17
1.C	0G]	1e	2.C	2.c	2g
.	.	.	.	.	2g
.	.	.	4D	4B	.
.	.	[1c	[1E	4c	1e
.	.	.	.	4d	.
2C	.	.	.	[2e	.
=18	=18	=18	=18	=18	=18
1AA	0A	1c]	1E]	2e]	0a
.	.	.	.	2E	.
1D	.	[1d	2r	1F	.
.	.	.	[2D	.	.
=19	=19	=19	=19	=19	=19
1GG	2.B-i	0d]	2D]	4G	0g
.	.	.	.	4F	.
.	.	.	1G	4G	.
.	4A	.	.	4A	.
2r	4G	.	.	1B	.
.	4F	.	.	.	.
2GG	[2G	.	2G	.	.
=20	=20	=20	=20	=20	=20
2C	4G]	0e	1E	2G	2r
.	4F	.	.	.	.
2C	4E	.	.	1c	2g
.	4D	.	.	.	.
1AA	1E	.	[1A	.	2cc
.	.	.	.	[2A	2cc
=21	=21	=21	=21	=21	=21
1D	[0D	2.f	2A]	2A]	2.a
.	.	.	2F	2d	.
.	.	4e	.	.	8gL
.	.	.	.	.	8aJ
1GG	.	4d	1G	2.B	4b
.	.	4c	.	.	4a
.	.	[2d	.	.	[2g
.	.	.	.	4c	.
=22	=22	=22	=22	=22	=22
1r	0D]	4d]	1A	0d	4g]
.	.	4c	.	.	4f#i
.	.	4B	.	.	4f#i
.	.	4A	.	.	8eL
.	.	.	.	.	8f#iJ
1GG	.	1B	1G	.	1g
=23	=23	=23	=23	=23	=23
1AA	0r	[0A	2C	2.c	2.e
.	.	.	2.c	.	.
.	.	.	.	4B	4d
2C	.	.	.	4A	2e
.	.	.	4B	4G	.
[2D	.	.	[2A	[2F	[2f
=24	=24	=24	=24	=24	=24
1D]	0r	0A]	4A]	4F]	4f]
.	.	.	4G	4G	4e
.	.	.	2.F	4A	2.d
.	.	.	.	4B	.
2AA	.	.	.	2c	.
.	.	.	4E	.	4c
2C	.	.	[2E	[2A	4c
.	.	.	.	.	4B
=25	=25	=25	=25	=25	=25
2.BB-X	0r	0r	2E]	2A]	1d
.	.	.	2D	2G	.
8AAL	.	.	.	.	.
8GGJ	.	.	.	.	.
2FF	.	.	2F	2A	2r
2AA	.	.	2E	[2c	2c
=26	=26	=26	=26	=26	=26
1GG	1r	0r	2r	2c]	1d
.	.	.	2G	2B	.
1FF	[1C	.	1A	2A	1f
.	.	.	.	4G	.
.	.	.	.	4F	.
=27	=27	=27	=27	=27	=27
1r	1C]	0r	1c	1E	1.g
1GG	1D	.	2.B	2r	.
.	.	.	.	2G	[2d
.	.	.	4c	.	.
=28	=28	=28	=28	=28	=28
2D	1F	1r	2d	1A	2d]
2D	.	.	2D	.	2f
2.C	[1G	[1G	1E	1c	2.e
8BBL	.	.	.	.	8dL
8AAJ	.	.	.	.	8cJ
=29	=29	=29	=29	=29	=29
1GG	2G]	1G]	1G	1.d	4B
.	.	.	.	.	4A
.	2D	.	.	.	2B
1D	1F	1A	2F	.	2A
.	.	.	4E	[2A	[2a
.	.	.	4D	.	.
=30	=30	=30	=30	=30	=30
1AA	1E	1c	1A	2A]	4a]
.	.	.	.	.	4g
.	.	.	.	2c	2e
2r	2D	[1d	1r	2B-X	2.f
[2F	2D	.	.	[2A	.
.	.	.	.	.	4g
=31	=31	=31	=31	=31	=31
4F]	1F	2d]	1D	2A]	2a
4G	.	.	.	.	.
2A	.	2A	.	2F	2d
2AA	1E	1c	1E	2A	2r
2C	.	.	.	[2G	2c
=32	=32	=32	=32	=32	=32
1GG	0D	1B	1G	2G]	1d
.	.	.	.	2.d	.
1D	.	2A	1A	.	1f
.	.	.	.	4c	.
.	.	2A	.	2d	.
=33	=33	=33	=33	=33	=33
2.C	0r	1c	2r	0e	1.g
.	.	.	2E	.	.
4D	.	.	.	.	.
1E	.	1B	1G	.	.
.	.	.	.	.	2e
=34	=34	=34	=34	=34	=34
2r	0r	0A	1F	2c	1.f
1D	.	.	.	1d	.
.	.	.	2D	.	.
2AA	.	.	2A	[2c	[2e
=35	=35	=35	=35	=35	=35
2C	0r	0r	2G	4c]	2e]
.	.	.	.	4B	.
2D	.	.	2F	4A	1d
.	.	.	.	4G	.
1AA	.	.	1E	[1A	.
.	.	.	.	.	2c#i
=36	=36	=36	=36	=36	=36
1D	0r	0r	2r	0A]	0d
.	.	.	1D	.	.
2r	.	.	.	.	.
[2D	.	.	[2F	.	.
=37	=37	=37	=37	=37	=37
2D]	0r	0r	4F]	1A	0r
.	.	.	4G	.	.
1F	.	.	1A	.	.
.	.	.	.	1c	.
2C	.	.	2G	.	.
=38	=38	=38	=38	=38	=38
1D	1r	0r	2G	2B	0d
.	.	.	2F#i	2A	.
1GG	[1D	.	1G	1B	.
=39	=39	=39	=39	=39	=39
1.D	1D]	0r	1r	1A	1.f
.	[1F	.	[1A	[1d	.
2D	.	.	.	.	4e
.	.	.	.	.	4d
=40	=40	=40	=40	=40	=40
1D	1F]	1r	1A]	1d]	[0a
1AA	1E	[1A	[1c	1r	.
=41	=41	=41	=41	=41	=41
1r	1.F	1A]	2c]	1r	0a]
.	.	.	2B	.	.
1AA	.	[1c	1A	2r	.
.	4E	.	.	[2e	.
.	4D	.	.	.	.
=42	=42	=42	=42	=42	=42
1C	1E	1c]	0G	2e]	1e
.	.	.	.	2c	.
1GG	1D	1B	.	1d	1g
=43	=43	=43	=43	=43	=43
1C	0r	1.c	2.E	1e	0g
.	.	.	4F	.	.
[1GG	.	.	[1G	1d	.
.	.	4B	.	.	.
.	.	4A	.	.	.
=44	=44	=44	=44	=44	=44
1GG]	0D	1B	1G]	[0d	1g
[1D	.	1A	1r	.	[1f
=45	=45	=45	=45	=45	=45
2D]	0F	0r	0A	0d]	2f]
2D	.	.	.	.	4e
.	.	.	.	.	4d
1D	.	.	.	.	[1a
=46	=46	=46	=46	=46	=46
1AA	1E	0A	1.c	0r	0a_
1r	[1F	.	.	.	.
.	.	.	2B	.	.
=47	=47	=47	=47	=47	=47
1AA	2F]	0c	1A	2r	1a]
.	4E	.	.	1e	.
.	4D	.	.	.	.
1C	1E	.	[1G	.	1e
.	.	.	.	2c	.
=48	=48	=48	=48	=48	=48
1GG	1D	1B	1G]	1d	1g
2.C	1r	[1c	2.E	2e	2.g
.	.	.	.	[2E	.
4D	.	.	4F	.	4f
=49	=49	=49	=49	=49	=49
2E	0r	2c]	2G	2E]	2e
2F	.	4B	2D	1A	2d
.	.	4A	.	.	.
1E	.	1B	2r	.	[1e
.	.	.	2B	2G#i	.
=50	=50	=50	=50	=50	=50
1AA	0E	1A	1.c	0A	1e]
1AA	.	1r	.	.	[1a
.	.	.	2B	.	.
=51	=51	=51	=51	=51	=51
1D	1.F	0r	0A	1r	1a]
1D	.	.	.	[1d	1f
.	2E	.	.	.	.
=52	=52	=52	=52	=52	=52
0GG	0D	0B	0G	0d]	2.g
.	.	.	.	.	8fL
.	.	.	.	.	8eJ
.	.	.	.	.	2d
.	.	.	.	.	[2g
=53	=53	=53	=53	=53	=53
2r	1C	1.c	0E	0e	4g]
.	.	.	.	.	4e
2AA	.	.	.	.	1a
1C	1r	.	.	.	.
.	.	2B	.	.	2g
=54	=54	=54	=54	=54	=54
1D	0r	0A	2F	1d	1f
.	.	.	2D	.	.
4AA	.	.	1E	[1c	[1e
4BB	.	.	.	.	.
4C	.	.	.	.	.
4D	.	.	.	.	.
=55	=55	=55	=55	=55	=55
4E	1r	1G	2r	2c]	0e]
4D	.	.	.	.	.
1E	.	.	2E	4B	.
.	.	.	.	4A	.
.	1E	1r	2G	2B	.
4D	.	.	2A	[2E	.
4C	.	.	.	.	.
=56	=56	=56	=56	=56	=56
1BB	1G	0r	4B	2E]	0r
.	.	.	4c	.	.
.	.	.	4d	2D	.
.	.	.	4B	.	.
[1AA	[1A	.	[1c	2E	.
.	.	.	.	2F	.
=57	=57	=57	=57	=57	=57
1AA]	2A]	1r	2c]	1E	1e
.	4G	.	1A	.	.
.	4F	.	.	.	.
1r	1E	1B	.	1r	1g
.	.	.	2G	.	.
=58	=58	=58	=58	=58	=58
1r	1D	1d	1F	1A	1.a
1AA	1r	[1e	1E	[1c	.
.	.	.	.	.	4g
.	.	.	.	.	4f
=59	=59	=59	=59	=59	=59
2C	1E	2e]	1r	1c]	1e
2C	.	4d	.	.	.
.	.	4c	.	.	.
2GG	1G	1B	1D	[1d	1d
2GG	.	.	.	.	.
=60	=60	=60	=60	=60	=60
2D	1.A	1A	2F	1d]	1r
2D	.	.	2F	.	.
1AA	.	1r	2E	2.c	1e
.	4G	.	[2A	.	.
.	4F	.	.	4d	.
=61	=61	=61	=61	=61	=61
0r	1E	1B	2A]	1e	1g
.	.	.	2G	.	.
.	1D	1d	1F	2r	[1a
.	.	.	.	2A	.
=62	=62	=62	=62	=62	=62
1AA	0r	1.e	2r	2.c	2a]
.	.	.	1E	.	4g
.	.	.	.	4d	4f
2C	.	.	.	2e	2e
2D	.	4d	2F	2A	[2a
.	.	4c	.	.	.
=63	=63	=63	=63	=63	=63
1E	2r	1B	1G	1e	2a]
.	2E	.	.	.	2g#i
2r	1F	1A	4D	2d	1a
.	.	.	4E	.	.
2D	.	.	4F	4A	.
.	.	.	4G	4B	.
=64	=64	=64	=64	=64	=64
2AA	2E	0r	2A	2c	1r
2BB	2D	.	2G	1d	.
1AA	1E	.	2.A	.	2r
.	.	.	.	2c#i	2e
.	.	.	4G	.	.
=65	=65	=65	=65	=65	=65
2D	1D	2r	2F	1d	2f
2GG	.	2B	4E	.	2g
.	.	.	4D	.	.
1AA	1r	1c	1A	2r	2.e
.	.	.	.	[2e	.
.	.	.	.	.	4f
=66	=66	=66	=66	=66	=66
1r	0r	2B	2E	2e]	2g
.	.	2A	2F	2d	1a
2r	.	1B	1E	1e	.
[2E	.	.	.	.	2g
=67	=67	=67	=67	=67	=67
2E]	0r	1A	2r	2c	1f
2D	.	.	1A	2d	.
1E	.	1r	.	2.B	1e
.	.	.	2G	.	.
.	.	.	.	8AL	.
.	.	.	.	8BJ	.
=68	=68	=68	=68	=68	=68
2C	0r	0r	1A	2c	2r
2D	.	.	.	2A	1a
1BB	.	.	2.D	2r	.
.	.	.	.	[2d	2g#i
.	.	.	4E	.	.
=69	=69	=69	=69	=69	=69
1AA	0r	0r	2F	2d]	0a
.	.	.	2E	2c	.
2r	.	.	1D	2d	.
[2D	.	.	.	[2f	.
=70	=70	=70	=70	=70	=70
2D]	0r	0r	2.A	2f]	2d
2C	.	.	.	2e	2e
.	.	.	4G	.	.
2D	.	.	4F	1d	2.f
.	.	.	4E	.	.
[2F	.	.	2D	.	.
.	.	.	.	.	4g
=71	=71	=71	=71	=71	=71
4F]	0A	0r	2r	2c	0a
4E	.	.	.	.	.
2.D	.	.	1d	1F	.
4C	.	.	.	.	.
2AA	.	.	2c	2E	.
=72	=72	=72	=72	=72	=72
1BB	1G	0r	1d	2.D	1r
.	.	.	.	4E	.
[1AA	1A	.	2.c	2F	[1a
.	.	.	.	2E	.
.	.	.	4B	.	.
=73	=73	=73	=73	=73	=73
1AA]	1.c	0e	4A	0E	1a]
.	.	.	4G	.	.
.	.	.	2A	.	.
1r	.	.	2E	.	1g
.	2B	.	2G	.	.
=74	=74	=74	=74	=74	=74
1r	1A	1d	1F	0r	1a
1C	[1G	1e	2E	.	[1cc
.	.	.	4D	.	.
.	.	.	4C	.	.
=75	=75	=75	=75	=75	=75
1GG	1G]	1.g	1D	0d	2cc]
.	.	.	.	.	4b
.	.	.	.	.	4a
1GG	1D	.	[1G	.	1b
.	.	2f	.	.	.
=76	=76	=76	=76	=76	=76
2C	1E	1e	2G]	1c	1cc
2AA	.	.	1A	.	.
[1D	[1F	[1d	.	1d	[1a
.	.	.	2D	.	.
=77	=77	=77	=77	=77	=77
1D]	2F]	1d]	1A	1.f	0a]
.	2E	.	.	.	.
1D	[1D	1A	1F	.	.
.	.	.	.	2e	.
=78	=78	=78	=78	=78	=78
1GG	1D]	1B	1G	1d	1.g
2r	1C	[1c	[1E	[1e	.
2AA	.	.	.	.	[2a
=79	=79	=79	=79	=79	=79
1C	0r	2c]	1E]	1e]	2a]
.	.	2B	.	.	2g
1D	.	[1A	2F	1d	1f
.	.	.	2D	.	.
=80	=80	=80	=80	=80	=80
4AA	0r	1A]	1E	1.c	[0e
4BB	.	.	.	.	.
4C	.	.	.	.	.
4D	.	.	.	.	.
4E	.	1G	2r	.	.
4D	.	.	.	.	.
[2E	.	.	2E	4B	.
.	.	.	.	4A	.
=81	=81	=81	=81	=81	=81
2E]	1E	0r	2G	2B	1e]
4D	.	.	2A	1E	.
4C	.	.	.	.	.
1BB	1G	.	4B	.	1r
.	.	.	4c	.	.
.	.	.	4d	2D	.
.	.	.	4B	.	.
=82	=82	=82	=82	=82	=82
0AA	1.A	0r	1.c	2E	1r
.	.	.	.	2F	.
.	.	.	.	1E	1e
.	4G	.	[2A	.	.
.	4F	.	.	.	.
=83	=83	=83	=83	=83	=83
0r	1E	1B	2A]	1r	1g
.	.	.	2G	.	.
.	1D	1d	1F	1A	[1a
=84	=84	=84	=84	=84	=84
1AA	1r	1.e	1E	0c	2a]
.	.	.	.	.	4g
.	.	.	.	.	4f
2C	1E	.	1r	.	1e
2C	.	4d	.	.	.
.	.	4c	.	.	.
=85	=85	=85	=85	=85	=85
2GG	1G	1B	1D	0d	1d
2GG	.	.	.	.	.
2D	[1A	1A	2F	.	1r
2D	.	.	2F	.	.
=86	=86	=86	=86	=86	=86
1AA	2A]	1r	2E	2.c	1e
.	4G	.	1A	.	.
.	4F	.	.	4d	.
1r	1E	1B	.	1e	1g
.	.	.	2G	.	.
=87	=87	=87	=87	=87	=87
1r	1D	1d	1F	2r	1.a
.	.	.	.	2A	.
1AA	1r	[1e	2r	2.c	.
.	.	.	[2E	.	4g
.	.	.	.	4d	4f
=88	=88	=88	=88	=88	=88
2C	1r	2e]	2E]	2e	2e
2D	.	4d	2F	2A	1a
.	.	4c	.	.	.
1E	2r	1B	1G	1e	.
.	2E	.	.	.	2g#i
=89	=89	=89	=89	=89	=89
2r	1F	1A	4D	2d	1a
.	.	.	4E	.	.
2D	.	.	4F	4A	.
.	.	.	4G	4B	.
2AA	2E	1r	2A	2c	1r
2BB	2D	.	2G	[2d	.
=90	=90	=90	=90	=90	=90
1AA	1E	1r	1A	2d]	2r
.	.	.	.	2c	2a
2D	1D	2r	1r	2.d	2f
2GG	.	2B	.	.	2g
.	.	.	.	8cL	.
.	.	.	.	8BJ	.
=91	=91	=91	=91	=91	=91
4AA	0r	1c	1A	2A	2.e
4BB	.	.	.	.	.
4C	.	.	.	1.e	.
4D	.	.	.	.	4f
2E	.	2B	2G	.	2g
2AA	.	2A	2E	.	[2a
=92	=92	=92	=92	=92	=92
2r	1r	1B	2.G	2d	2a]
2E	.	.	.	2B	2g
.	.	.	4F	.	.
2.F	2r	1A	2D	2.d	1a
.	[2D	.	[2F	.	.
4G	.	.	.	4e	.
=93	=93	=93	=93	=93	=93
2A	2D]	0r	4F]	2f	2r
.	.	.	4G	.	.
2AA	2C	.	1A	2.e	2a
2BB	1D	.	.	.	2f
.	.	.	.	4d	.
2BB	.	.	2G	[2d	2g
=94	=94	=94	=94	=94	=94
0AA	0E	1r	2.A	2d]	2e
.	.	.	.	4c#i	2.a
.	.	.	4G	4B	.
.	.	2r	2E	1c#i	.
.	.	.	.	.	4g
.	.	[2A	2A	.	2e
=95	=95	=95	=95	=95	=95
2r	[0Dl	2A]	4G	[0dl	2f
.	.	.	4E	.	.
2GG	.	2G	2G	.	2d
2D	.	1A	2F	.	1f
2D	.	.	2D	.	.
=96	=96	=96	=96	=96	=96
0GG	0D_	0B	2.G	0d_	0g
.	.	.	4F	.	.
.	.	.	2D	.	.
.	.	.	[2G	.	.
=97	=97	=97	=97	=97	=97
[0Dl	0D_	[0Al	2G]	0d_	[0al
.	.	.	4F	.	.
.	.	.	4E	.	.
.	.	.	[1Fl	.	.
=98	=98	=98	=98	=98	=98
00D]	00D]	00A]	00F]	00d]	00a]
==	==	==	==	==	==
*-	*-	*-	*-	*-	*-
!!!system-decoration: [*]
!!!RDF**kern: i = editorial accidental
!!!RDF**kern: l = terminal long
!!!ENC: Benjamin Ory
!!!END: 2022/4/26
!!!EED: Benjamin Ory
!!!EEV: 2022/04/26
!!!YEC: Copyright 2022 Benjamin Ory, All Rights Reserved
!!!ONB: Translated from MusicXML on 2022/04/26